images/50438993.svg

<?xml version="1.0" encoding="UTF-8"?>
<svg xmlns="http://www.w3.org/2000/svg" xmlns:xlink="http://www.w3.org/1999/xlink" width="300pt" height="300pt" viewBox="0 0 300 300" version="1.1">
<defs>
<g>
<symbol overflow="visible" id="glyph0-0">
<path style="stroke:none;" d="M 0.453125 1.59375 L 0.453125 -6.34375 L 4.953125 -6.34375 L 4.953125 1.59375 Z M 0.953125 1.09375 L 4.453125 1.09375 L 4.453125 -5.84375 L 0.953125 -5.84375 Z M 0.953125 1.09375 "/>
</symbol>
<symbol overflow="visible" id="glyph0-1">
<path style="stroke:none;" d="M 3.546875 -5.953125 C 2.898438 -5.953125 2.382812 -5.710938 2 -5.234375 C 1.625 -4.753906 1.4375 -4.101562 1.4375 -3.28125 C 1.4375 -2.445312 1.625 -1.789062 2 -1.3125 C 2.382812 -0.832031 2.898438 -0.59375 3.546875 -0.59375 C 4.191406 -0.59375 4.703125 -0.832031 5.078125 -1.3125 C 5.453125 -1.789062 5.640625 -2.445312 5.640625 -3.28125 C 5.640625 -4.101562 5.453125 -4.753906 5.078125 -5.234375 C 4.703125 -5.710938 4.191406 -5.953125 3.546875 -5.953125 Z M 3.546875 -6.6875 C 4.460938 -6.6875 5.195312 -6.375 5.75 -5.75 C 6.300781 -5.132812 6.578125 -4.3125 6.578125 -3.28125 C 6.578125 -2.238281 6.300781 -1.410156 5.75 -0.796875 C 5.195312 -0.179688 4.460938 0.125 3.546875 0.125 C 2.617188 0.125 1.878906 -0.179688 1.328125 -0.796875 C 0.773438 -1.410156 0.5 -2.238281 0.5 -3.28125 C 0.5 -4.3125 0.773438 -5.132812 1.328125 -5.75 C 1.878906 -6.375 2.617188 -6.6875 3.546875 -6.6875 Z M 3.546875 -6.6875 "/>
</symbol>
<symbol overflow="visible" id="glyph0-2">
<path style="stroke:none;" d="M 0.890625 -6.5625 L 2.078125 -6.5625 L 4.984375 -1.078125 L 4.984375 -6.5625 L 5.84375 -6.5625 L 5.84375 0 L 4.65625 0 L 1.75 -5.484375 L 1.75 0 L 0.890625 0 Z M 0.890625 -6.5625 "/>
</symbol>
<symbol overflow="visible" id="glyph0-3">
<path style="stroke:none;" d="M 0.890625 -6.5625 L 1.765625 -6.5625 L 1.765625 -3.875 L 5 -3.875 L 5 -6.5625 L 5.890625 -6.5625 L 5.890625 0 L 5 0 L 5 -3.125 L 1.765625 -3.125 L 1.765625 0 L 0.890625 0 Z M 0.890625 -6.5625 "/>
</symbol>
</g>
</defs>
<g id="surface12957">
<rect x="0" y="0" width="300" height="300" style="fill:rgb(100%,100%,100%);fill-opacity:1;stroke:none;"/>
<path style="fill:none;stroke-width:1.2;stroke-linecap:butt;stroke-linejoin:miter;stroke:rgb(100%,0%,0%);stroke-opacity:1;stroke-miterlimit:10;" d="M 99.65625 177.515625 L 97.828125 166.855469 "/>
<path style="fill:none;stroke-width:1.2;stroke-linecap:butt;stroke-linejoin:miter;stroke:rgb(0%,0%,0%);stroke-opacity:1;stroke-miterlimit:10;" d="M 97.828125 166.855469 L 96 156.195312 "/>
<path style="fill:none;stroke-width:1.2;stroke-linecap:butt;stroke-linejoin:miter;stroke:rgb(100%,0%,0%);stroke-opacity:1;stroke-miterlimit:10;" d="M 94.640625 178.375 L 92.8125 167.714844 "/>
<path style="fill:none;stroke-width:1.2;stroke-linecap:butt;stroke-linejoin:miter;stroke:rgb(0%,0%,0%);stroke-opacity:1;stroke-miterlimit:10;" d="M 92.8125 167.714844 L 90.984375 157.054688 "/>
<path style=" stroke:none;fill-rule:nonzero;fill:rgb(100%,100%,100%);fill-opacity:1;" d="M 93.148438 172.445312 L 101.148438 172.445312 L 101.148438 183.445312 L 93.148438 183.445312 Z M 93.148438 172.445312 "/>
<g style="fill:rgb(100%,0%,0%);fill-opacity:1;">
  <use xlink:href="#glyph0-1" x="93.148438" y="181.108398"/>
</g>
<path style="fill:none;stroke-width:1.2;stroke-linecap:butt;stroke-linejoin:miter;stroke:rgb(0%,0%,0%);stroke-opacity:1;stroke-miterlimit:10;" d="M 93.492188 156.625 L 83.347656 152.878906 "/>
<path style="fill:none;stroke-width:1.2;stroke-linecap:butt;stroke-linejoin:miter;stroke:rgb(0%,0%,100%);stroke-opacity:1;stroke-miterlimit:10;" d="M 83.347656 152.878906 L 73.199219 149.132812 "/>
<path style="fill:none;stroke-width:1.2;stroke-linecap:butt;stroke-linejoin:miter;stroke:rgb(0%,0%,0%);stroke-opacity:1;stroke-miterlimit:10;" d="M 93.492188 156.625 L 110.125 142.800781 "/>
<path style="fill:none;stroke-width:1.2;stroke-linecap:butt;stroke-linejoin:miter;stroke:rgb(0%,0%,100%);stroke-opacity:1;stroke-miterlimit:10;" d="M 73.199219 149.132812 L 64.882812 156.046875 "/>
<path style="fill:none;stroke-width:1.2;stroke-linecap:butt;stroke-linejoin:miter;stroke:rgb(0%,0%,0%);stroke-opacity:1;stroke-miterlimit:10;" d="M 64.882812 156.046875 L 56.566406 162.960938 "/>
<path style=" stroke:none;fill-rule:nonzero;fill:rgb(100%,100%,100%);fill-opacity:1;" d="M 66.199219 143.632812 L 80.199219 143.632812 L 80.199219 154.632812 L 66.199219 154.632812 Z M 66.199219 143.632812 "/>
<g style="fill:rgb(0%,0%,100%);fill-opacity:1;">
  <use xlink:href="#glyph0-2" x="66.199219" y="152.295898"/>
  <use xlink:href="#glyph0-3" x="73.176758" y="152.295898"/>
</g>
<path style="fill:none;stroke-width:1.2;stroke-linecap:butt;stroke-linejoin:miter;stroke:rgb(0%,0%,0%);stroke-opacity:1;stroke-miterlimit:10;" d="M 56.566406 162.960938 L 49.078125 183.25 "/>
<path style="fill:none;stroke-width:1.2;stroke-linecap:butt;stroke-linejoin:miter;stroke:rgb(0%,0%,0%);stroke-opacity:1;stroke-miterlimit:10;" d="M 35.25 166.617188 L 56.566406 162.960938 "/>
<path style="fill:none;stroke-width:1.2;stroke-linecap:butt;stroke-linejoin:miter;stroke:rgb(0%,0%,0%);stroke-opacity:1;stroke-miterlimit:10;" d="M 49.078125 183.25 L 35.25 166.617188 "/>
<path style="fill:none;stroke-width:1.2;stroke-linecap:butt;stroke-linejoin:miter;stroke:rgb(0%,0%,0%);stroke-opacity:1;stroke-miterlimit:10;" d="M 110.125 142.800781 L 130.414062 150.292969 "/>
<path style="fill:none;stroke-width:1.2;stroke-linecap:butt;stroke-linejoin:miter;stroke:rgb(0%,0%,0%);stroke-opacity:1;stroke-miterlimit:10;" d="M 113.917969 138.773438 L 130.148438 144.769531 "/>
<path style="fill:none;stroke-width:1.2;stroke-linecap:butt;stroke-linejoin:miter;stroke:rgb(0%,0%,0%);stroke-opacity:1;stroke-miterlimit:10;" d="M 106.46875 121.480469 L 110.125 142.800781 "/>
<path style="fill:none;stroke-width:1.2;stroke-linecap:butt;stroke-linejoin:miter;stroke:rgb(0%,0%,0%);stroke-opacity:1;stroke-miterlimit:10;" d="M 130.414062 150.292969 L 147.046875 136.464844 "/>
<path style="fill:none;stroke-width:1.2;stroke-linecap:butt;stroke-linejoin:miter;stroke:rgb(0%,0%,0%);stroke-opacity:1;stroke-miterlimit:10;" d="M 147.046875 136.464844 L 143.390625 115.148438 "/>
<path style="fill:none;stroke-width:1.2;stroke-linecap:butt;stroke-linejoin:miter;stroke:rgb(0%,0%,0%);stroke-opacity:1;stroke-miterlimit:10;" d="M 141.667969 135.195312 L 138.742188 118.140625 "/>
<path style="fill:none;stroke-width:1.2;stroke-linecap:butt;stroke-linejoin:miter;stroke:rgb(0%,0%,0%);stroke-opacity:1;stroke-miterlimit:10;" d="M 143.390625 115.148438 L 151.707031 108.234375 "/>
<path style="fill:none;stroke-width:1.2;stroke-linecap:butt;stroke-linejoin:miter;stroke:rgb(0%,0%,100%);stroke-opacity:1;stroke-miterlimit:10;" d="M 151.707031 108.234375 L 160.023438 101.320312 "/>
<path style="fill:none;stroke-width:1.2;stroke-linecap:butt;stroke-linejoin:miter;stroke:rgb(0%,0%,0%);stroke-opacity:1;stroke-miterlimit:10;" d="M 143.390625 115.148438 L 123.101562 107.65625 "/>
<path style="fill:none;stroke-width:1.2;stroke-linecap:butt;stroke-linejoin:miter;stroke:rgb(0%,0%,100%);stroke-opacity:1;stroke-miterlimit:10;" d="M 160.023438 101.320312 L 170.167969 105.066406 "/>
<path style="fill:none;stroke-width:1.2;stroke-linecap:butt;stroke-linejoin:miter;stroke:rgb(0%,0%,0%);stroke-opacity:1;stroke-miterlimit:10;" d="M 170.167969 105.066406 L 180.316406 108.8125 "/>
<path style=" stroke:none;fill-rule:nonzero;fill:rgb(100%,100%,100%);fill-opacity:1;" d="M 153.023438 95.820312 L 167.023438 95.820312 L 167.023438 106.820312 L 153.023438 106.820312 Z M 153.023438 95.820312 "/>
<g style="fill:rgb(0%,0%,100%);fill-opacity:1;">
  <use xlink:href="#glyph0-2" x="153.023438" y="104.483398"/>
  <use xlink:href="#glyph0-3" x="160.000977" y="104.483398"/>
</g>
<path style="fill:none;stroke-width:1.2;stroke-linecap:butt;stroke-linejoin:miter;stroke:rgb(0%,0%,0%);stroke-opacity:1;stroke-miterlimit:10;" d="M 180.316406 108.8125 L 182.144531 119.472656 "/>
<path style="fill:none;stroke-width:1.2;stroke-linecap:butt;stroke-linejoin:miter;stroke:rgb(0%,0%,100%);stroke-opacity:1;stroke-miterlimit:10;" d="M 182.144531 119.472656 L 183.972656 130.128906 "/>
<path style="fill:none;stroke-width:1.2;stroke-linecap:butt;stroke-linejoin:miter;stroke:rgb(0%,0%,0%);stroke-opacity:1;stroke-miterlimit:10;" d="M 185.695312 110.085938 L 187.160156 118.609375 "/>
<path style="fill:none;stroke-width:1.2;stroke-linecap:butt;stroke-linejoin:miter;stroke:rgb(0%,0%,100%);stroke-opacity:1;stroke-miterlimit:10;" d="M 187.160156 118.609375 L 188.621094 127.136719 "/>
<path style="fill:none;stroke-width:1.2;stroke-linecap:butt;stroke-linejoin:miter;stroke:rgb(0%,0%,100%);stroke-opacity:1;stroke-miterlimit:10;" d="M 196.949219 94.988281 L 188.632812 101.898438 "/>
<path style="fill:none;stroke-width:1.2;stroke-linecap:butt;stroke-linejoin:miter;stroke:rgb(0%,0%,0%);stroke-opacity:1;stroke-miterlimit:10;" d="M 188.632812 101.898438 L 180.316406 108.8125 "/>
<path style="fill:none;stroke-width:1.2;stroke-linecap:butt;stroke-linejoin:miter;stroke:rgb(0%,0%,100%);stroke-opacity:1;stroke-miterlimit:10;" d="M 183.972656 130.128906 L 194.117188 133.875 "/>
<path style="fill:none;stroke-width:1.2;stroke-linecap:butt;stroke-linejoin:miter;stroke:rgb(0%,0%,0%);stroke-opacity:1;stroke-miterlimit:10;" d="M 194.117188 133.875 L 204.261719 137.621094 "/>
<path style=" stroke:none;fill-rule:nonzero;fill:rgb(100%,100%,100%);fill-opacity:1;" d="M 180.972656 124.628906 L 187.972656 124.628906 L 187.972656 135.628906 L 180.972656 135.628906 Z M 180.972656 124.628906 "/>
<g style="fill:rgb(0%,0%,100%);fill-opacity:1;">
  <use xlink:href="#glyph0-2" x="180.972656" y="133.291992"/>
</g>
<path style="fill:none;stroke-width:1.2;stroke-linecap:butt;stroke-linejoin:miter;stroke:rgb(0%,0%,0%);stroke-opacity:1;stroke-miterlimit:10;" d="M 204.261719 137.621094 L 220.894531 123.796875 "/>
<path style="fill:none;stroke-width:1.2;stroke-linecap:butt;stroke-linejoin:miter;stroke:rgb(0%,0%,0%);stroke-opacity:1;stroke-miterlimit:10;" d="M 202.671875 132.324219 L 215.980469 121.265625 "/>
<path style="fill:none;stroke-width:1.2;stroke-linecap:butt;stroke-linejoin:miter;stroke:rgb(0%,0%,0%);stroke-opacity:1;stroke-miterlimit:10;" d="M 204.261719 137.621094 L 207.917969 158.941406 "/>
<path style="fill:none;stroke-width:1.2;stroke-linecap:butt;stroke-linejoin:miter;stroke:rgb(0%,0%,0%);stroke-opacity:1;stroke-miterlimit:10;" d="M 220.894531 123.796875 L 217.238281 102.476562 "/>
<path style="fill:none;stroke-width:1.2;stroke-linecap:butt;stroke-linejoin:miter;stroke:rgb(0%,0%,0%);stroke-opacity:1;stroke-miterlimit:10;" d="M 217.238281 102.476562 L 207.09375 98.734375 "/>
<path style="fill:none;stroke-width:1.2;stroke-linecap:butt;stroke-linejoin:miter;stroke:rgb(0%,0%,100%);stroke-opacity:1;stroke-miterlimit:10;" d="M 207.09375 98.734375 L 196.949219 94.988281 "/>
<path style="fill:none;stroke-width:1.2;stroke-linecap:butt;stroke-linejoin:miter;stroke:rgb(0%,0%,0%);stroke-opacity:1;stroke-miterlimit:10;" d="M 213.445312 106.503906 L 205.332031 103.507812 "/>
<path style="fill:none;stroke-width:1.2;stroke-linecap:butt;stroke-linejoin:miter;stroke:rgb(0%,0%,100%);stroke-opacity:1;stroke-miterlimit:10;" d="M 205.332031 103.507812 L 197.214844 100.511719 "/>
<path style=" stroke:none;fill-rule:nonzero;fill:rgb(100%,100%,100%);fill-opacity:1;" d="M 193.949219 89.488281 L 200.949219 89.488281 L 200.949219 100.488281 L 193.949219 100.488281 Z M 193.949219 89.488281 "/>
<g style="fill:rgb(0%,0%,100%);fill-opacity:1;">
  <use xlink:href="#glyph0-2" x="193.949219" y="98.151367"/>
</g>
<path style="fill:none;stroke-width:1.2;stroke-linecap:butt;stroke-linejoin:miter;stroke:rgb(0%,0%,0%);stroke-opacity:1;stroke-miterlimit:10;" d="M 207.917969 158.941406 L 217.617188 163.726562 "/>
<path style="fill:none;stroke-width:1.2;stroke-linecap:butt;stroke-linejoin:miter;stroke:rgb(0%,0%,100%);stroke-opacity:1;stroke-miterlimit:10;" d="M 217.617188 163.726562 L 227.316406 168.511719 "/>
<path style="fill:none;stroke-width:1.2;stroke-linecap:butt;stroke-linejoin:miter;stroke:rgb(0%,0%,0%);stroke-opacity:1;stroke-miterlimit:10;" d="M 192.824219 174.429688 L 207.917969 158.941406 "/>
<path style="fill:none;stroke-width:1.2;stroke-linecap:butt;stroke-linejoin:miter;stroke:rgb(0%,0%,0%);stroke-opacity:1;stroke-miterlimit:10;" d="M 197.976562 176.433594 L 210.054688 164.042969 "/>
<path style="fill:none;stroke-width:1.2;stroke-linecap:butt;stroke-linejoin:miter;stroke:rgb(0%,0%,100%);stroke-opacity:1;stroke-miterlimit:10;" d="M 227.316406 168.511719 L 236.886719 163.480469 "/>
<path style="fill:none;stroke-width:1.2;stroke-linecap:butt;stroke-linejoin:miter;stroke:rgb(0%,0%,0%);stroke-opacity:1;stroke-miterlimit:10;" d="M 236.886719 163.480469 L 246.460938 158.445312 "/>
<path style="fill:none;stroke-width:1.2;stroke-linecap:butt;stroke-linejoin:miter;stroke:rgb(0%,0%,100%);stroke-opacity:1;stroke-miterlimit:10;" d="M 227.316406 168.511719 L 225.761719 179.214844 "/>
<path style="fill:none;stroke-width:1.2;stroke-linecap:butt;stroke-linejoin:miter;stroke:rgb(0%,0%,0%);stroke-opacity:1;stroke-miterlimit:10;" d="M 225.761719 179.214844 L 224.207031 189.917969 "/>
<path style=" stroke:none;fill-rule:nonzero;fill:rgb(100%,100%,100%);fill-opacity:1;" d="M 224.316406 163.011719 L 231.316406 163.011719 L 231.316406 174.011719 L 224.316406 174.011719 Z M 224.316406 163.011719 "/>
<g style="fill:rgb(0%,0%,100%);fill-opacity:1;">
  <use xlink:href="#glyph0-2" x="224.316406" y="171.674805"/>
</g>
<path style="fill:none;stroke-width:1.2;stroke-linecap:butt;stroke-linejoin:miter;stroke:rgb(0%,0%,0%);stroke-opacity:1;stroke-miterlimit:10;" d="M 246.460938 158.445312 L 264.75 169.992188 "/>
<path style="fill:none;stroke-width:1.2;stroke-linecap:butt;stroke-linejoin:miter;stroke:rgb(0%,0%,0%);stroke-opacity:1;stroke-miterlimit:10;" d="M 246.460938 158.445312 L 247.316406 136.832031 "/>
<path style="fill:none;stroke-width:1.2;stroke-linecap:butt;stroke-linejoin:miter;stroke:rgb(0%,0%,0%);stroke-opacity:1;stroke-miterlimit:10;" d="M 224.207031 189.917969 L 213.546875 191.746094 "/>
<path style="fill:none;stroke-width:1.2;stroke-linecap:butt;stroke-linejoin:miter;stroke:rgb(0%,0%,100%);stroke-opacity:1;stroke-miterlimit:10;" d="M 213.546875 191.746094 L 202.890625 193.574219 "/>
<path style="fill:none;stroke-width:1.2;stroke-linecap:butt;stroke-linejoin:miter;stroke:rgb(0%,0%,0%);stroke-opacity:1;stroke-miterlimit:10;" d="M 221.214844 185.265625 L 212.6875 186.730469 "/>
<path style="fill:none;stroke-width:1.2;stroke-linecap:butt;stroke-linejoin:miter;stroke:rgb(0%,0%,100%);stroke-opacity:1;stroke-miterlimit:10;" d="M 212.6875 186.730469 L 204.160156 188.191406 "/>
<path style="fill:none;stroke-width:1.2;stroke-linecap:butt;stroke-linejoin:miter;stroke:rgb(0%,0%,0%);stroke-opacity:1;stroke-miterlimit:10;" d="M 224.207031 189.917969 L 239.695312 205.011719 "/>
<path style="fill:none;stroke-width:1.2;stroke-linecap:butt;stroke-linejoin:miter;stroke:rgb(0%,0%,100%);stroke-opacity:1;stroke-miterlimit:10;" d="M 202.890625 193.574219 L 197.855469 184 "/>
<path style="fill:none;stroke-width:1.2;stroke-linecap:butt;stroke-linejoin:miter;stroke:rgb(0%,0%,0%);stroke-opacity:1;stroke-miterlimit:10;" d="M 197.855469 184 L 192.824219 174.429688 "/>
<path style=" stroke:none;fill-rule:nonzero;fill:rgb(100%,100%,100%);fill-opacity:1;" d="M 199.890625 188.074219 L 206.890625 188.074219 L 206.890625 199.074219 L 199.890625 199.074219 Z M 199.890625 188.074219 "/>
<g style="fill:rgb(0%,0%,100%);fill-opacity:1;">
  <use xlink:href="#glyph0-2" x="199.890625" y="196.737305"/>
</g>
<path style="fill:none;stroke-width:1.2;stroke-linecap:butt;stroke-linejoin:miter;stroke:rgb(0%,0%,0%);stroke-opacity:1;stroke-miterlimit:10;" d="M 123.101562 107.65625 L 106.46875 121.480469 "/>
<path style="fill:none;stroke-width:1.2;stroke-linecap:butt;stroke-linejoin:miter;stroke:rgb(0%,0%,0%);stroke-opacity:1;stroke-miterlimit:10;" d="M 124.691406 112.953125 L 111.382812 124.011719 "/>
</g>
</svg>

<svg xmlns="http://www.w3.org/2000/svg" xmlns:xlink="http://www.w3.org/1999/xlink" width="300pt" height="300pt" viewBox="0 0 300 300"><defs><symbol overflow="visible"><path d="M.453 1.594v-7.938h4.5v7.938zm.5-.5h3.5v-6.938h-3.5zm0 0"/></symbol><symbol overflow="visible" id="a"><path d="M3.547-5.953c-.65 0-1.164.242-1.547.72-.375.48-.563 1.13-.563 1.952 0 .835.188 1.49.563 1.967.383.48.898.72 1.547.72.644 0 1.156-.24 1.53-.72.376-.476.564-1.132.564-1.968 0-.822-.187-1.474-.562-1.954-.375-.477-.887-.72-1.53-.72zm0-.734c.914 0 1.648.312 2.203.937.55.617.828 1.438.828 2.47 0 1.042-.277 1.87-.828 2.483-.555.617-1.29.922-2.203.922-.93 0-1.668-.305-2.22-.922C.774-1.41.5-2.237.5-3.28c0-1.033.273-1.853.828-2.47.55-.625 1.29-.938 2.22-.938zm0 0"/></symbol><symbol overflow="visible" id="b"><path d="M.89-6.563H2.08l2.906 5.485v-5.484h.86V0H4.656L1.75-5.484V0H.89zm0 0"/></symbol><symbol overflow="visible" id="c"><path d="M.89-6.563h.876v2.688H5v-2.688h.89V0H5v-3.125H1.766V0H.89zm0 0"/></symbol></defs><g><path fill="#fff" d="M0 0h300v300H0z"/><path d="M99.656 177.516l-1.828-10.66" stroke-width="1.2" stroke="#f00" stroke-miterlimit="10" fill="none"/><path d="M97.828 166.855L96 156.195" stroke-width="1.2" stroke="#000" stroke-miterlimit="10" fill="none"/><path d="M94.64 178.375l-1.828-10.66" stroke-width="1.2" stroke="#f00" stroke-miterlimit="10" fill="none"/><path d="M92.813 167.715l-1.83-10.66" stroke-width="1.2" stroke="#000" stroke-miterlimit="10" fill="none"/><path d="M93.148 172.445h8v11h-8zm0 0" fill="#fff"/><use xlink:href="#a" x="93.148" y="181.108" fill="#f00"/><path d="M93.492 156.625l-10.144-3.746" stroke-width="1.2" stroke="#000" stroke-miterlimit="10" fill="none"/><path d="M83.348 152.88l-10.15-3.747" stroke-width="1.2" stroke="#00f" stroke-miterlimit="10" fill="none"/><path d="M93.492 156.625l16.633-13.824" stroke-width="1.2" stroke="#000" stroke-miterlimit="10" fill="none"/><path d="M73.2 149.133l-8.317 6.914" stroke-width="1.2" stroke="#00f" stroke-miterlimit="10" fill="none"/><path d="M64.883 156.047l-8.317 6.914" stroke-width="1.2" stroke="#000" stroke-miterlimit="10" fill="none"/><path d="M66.2 143.633h14v11h-14zm0 0" fill="#fff"/><g fill="#00f"><use xlink:href="#b" x="66.199" y="152.296"/><use xlink:href="#c" x="73.177" y="152.296"/></g><path d="M56.566 162.96l-7.488 20.29M35.25 166.617l21.316-3.656M49.078 183.25L35.25 166.617M110.125 142.8l20.29 7.493M113.918 138.773l16.23 5.997M106.47 121.48l3.655 21.32M130.414 150.293l16.633-13.828M147.047 136.465l-3.656-21.317M141.668 135.195l-2.926-17.054M143.39 115.148l8.317-6.914" stroke-width="1.2" stroke="#000" stroke-miterlimit="10" fill="none"/><path d="M151.707 108.234l8.316-6.914" stroke-width="1.2" stroke="#00f" stroke-miterlimit="10" fill="none"/><path d="M143.39 115.148l-20.288-7.492" stroke-width="1.2" stroke="#000" stroke-miterlimit="10" fill="none"/><path d="M160.023 101.32l10.145 3.746" stroke-width="1.2" stroke="#00f" stroke-miterlimit="10" fill="none"/><path d="M170.168 105.066l10.148 3.746" stroke-width="1.2" stroke="#000" stroke-miterlimit="10" fill="none"/><path d="M153.023 95.82h14v11h-14zm0 0" fill="#fff"/><g fill="#00f"><use xlink:href="#b" x="153.023" y="104.483"/><use xlink:href="#c" x="160.001" y="104.483"/></g><path d="M180.316 108.813l1.83 10.66" stroke-width="1.2" stroke="#000" stroke-miterlimit="10" fill="none"/><path d="M182.145 119.473l1.828 10.656" stroke-width="1.2" stroke="#00f" stroke-miterlimit="10" fill="none"/><path d="M185.695 110.086l1.465 8.523" stroke-width="1.2" stroke="#000" stroke-miterlimit="10" fill="none"/><path d="M187.16 118.61l1.46 8.527M196.95 94.988l-8.317 6.91" stroke-width="1.2" stroke="#00f" stroke-miterlimit="10" fill="none"/><path d="M188.633 101.898l-8.317 6.915" stroke-width="1.2" stroke="#000" stroke-miterlimit="10" fill="none"/><path d="M183.973 130.13l10.144 3.745" stroke-width="1.2" stroke="#00f" stroke-miterlimit="10" fill="none"/><path d="M194.117 133.875l10.145 3.746" stroke-width="1.2" stroke="#000" stroke-miterlimit="10" fill="none"/><path d="M180.973 124.63h7v11h-7zm0 0" fill="#fff"/><use xlink:href="#b" x="180.973" y="133.292" fill="#00f"/><path d="M204.262 137.62l16.633-13.823M202.672 132.324l13.308-11.058M204.262 137.62l3.656 21.32M220.895 123.797l-3.657-21.32M217.238 102.477l-10.144-3.743" stroke-width="1.2" stroke="#000" stroke-miterlimit="10" fill="none"/><path d="M207.094 98.734l-10.145-3.746" stroke-width="1.2" stroke="#00f" stroke-miterlimit="10" fill="none"/><path d="M213.445 106.504l-8.113-2.996" stroke-width="1.2" stroke="#000" stroke-miterlimit="10" fill="none"/><path d="M205.332 103.508l-8.117-2.996" stroke-width="1.2" stroke="#00f" stroke-miterlimit="10" fill="none"/><path d="M193.95 89.488h7v11h-7zm0 0" fill="#fff"/><use xlink:href="#b" x="193.949" y="98.151" fill="#00f"/><path d="M207.918 158.94l9.7 4.787" stroke-width="1.2" stroke="#000" stroke-miterlimit="10" fill="none"/><path d="M217.617 163.727l9.7 4.785" stroke-width="1.2" stroke="#00f" stroke-miterlimit="10" fill="none"/><path d="M192.824 174.43l15.094-15.49M197.977 176.434l12.078-12.39" stroke-width="1.2" stroke="#000" stroke-miterlimit="10" fill="none"/><path d="M227.316 168.512l9.57-5.032" stroke-width="1.2" stroke="#00f" stroke-miterlimit="10" fill="none"/><path d="M236.887 163.48l9.574-5.035" stroke-width="1.2" stroke="#000" stroke-miterlimit="10" fill="none"/><path d="M227.316 168.512l-1.554 10.703" stroke-width="1.2" stroke="#00f" stroke-miterlimit="10" fill="none"/><path d="M225.762 179.215l-1.555 10.703" stroke-width="1.2" stroke="#000" stroke-miterlimit="10" fill="none"/><path d="M224.316 163.012h7v11h-7zm0 0" fill="#fff"/><use xlink:href="#b" x="224.316" y="171.675" fill="#00f"/><path d="M246.46 158.445l18.29 11.547M246.46 158.445l.856-21.613M224.207 189.918l-10.66 1.828" stroke-width="1.2" stroke="#000" stroke-miterlimit="10" fill="none"/><path d="M213.547 191.746l-10.656 1.828" stroke-width="1.2" stroke="#00f" stroke-miterlimit="10" fill="none"/><path d="M221.215 185.266l-8.528 1.464" stroke-width="1.2" stroke="#000" stroke-miterlimit="10" fill="none"/><path d="M212.688 186.73l-8.528 1.46" stroke-width="1.2" stroke="#00f" stroke-miterlimit="10" fill="none"/><path d="M224.207 189.918l15.488 15.094" stroke-width="1.2" stroke="#000" stroke-miterlimit="10" fill="none"/><path d="M202.89 193.574L197.856 184" stroke-width="1.2" stroke="#00f" stroke-miterlimit="10" fill="none"/><path d="M197.855 184l-5.03-9.57" stroke-width="1.2" stroke="#000" stroke-miterlimit="10" fill="none"/><path d="M199.89 188.074h7v11h-7zm0 0" fill="#fff"/><use xlink:href="#b" x="199.891" y="196.737" fill="#00f"/><path d="M123.102 107.656L106.47 121.48M124.69 112.953l-13.307 11.06" stroke-width="1.2" stroke="#000" stroke-miterlimit="10" fill="none"/></g></svg>
